resources/icons/20px/vector.svg

<svg width="20" height="20" viewBox="0 0 20 20" fill="none" xmlns="http://www.w3.org/2000/svg">
<path fill-rule="evenodd" clip-rule="evenodd" d="M11.2858 1.69969C11.1057 1.51974 10.9956 1.26981 10.9956 0.989886C10.9956 0.44004 11.446 -0.00983373 11.9965 0.000163463C12.2768 0.000163463 12.527 0.110133 12.7072 0.290082L15.7099 3.28924C15.8901 3.46919 16.0002 3.72912 16.0002 3.99904C16.0002 4.26897 15.8901 4.51889 15.7099 4.70884L12.7072 7.708C12.527 7.88795 12.2768 7.99792 11.9965 7.99792C11.446 7.99792 10.9956 7.54804 10.9956 6.9982C10.9956 6.71828 11.1157 6.46835 11.2959 6.2884L12.5871 4.99876H5.00093C4.45042 4.99876 4 4.54889 4 3.99904C4 3.4492 4.45042 2.99932 5.00093 2.99932H12.5871L11.2858 1.69969Z" fill="black"/>
<path fill-rule="evenodd" clip-rule="evenodd" d="M5.5528 10.1055C6.04679 9.85856 6.64747 10.0588 6.89447 10.5528L10.0001 16.7639L13.1057 10.5528C13.3527 10.0588 13.9534 9.85856 14.4474 10.1055C14.9414 10.3525 15.1416 10.9532 14.8946 11.4472L10.8945 19.4472C10.7251 19.786 10.3789 20 10.0001 20C9.62132 20 9.27505 19.786 9.10565 19.4472L5.10558 11.4472C4.85859 10.9532 5.05882 10.3525 5.5528 10.1055Z" fill="black"/>
</svg>

<svg xmlns="http://www.w3.org/2000/svg" viewBox="0 0 20 20">
  <path d="M11.286 1.7a1 1 0 0 1-.29-.71c0-.55.45-1 1-.99.28 0 .531.11.711.29l3.003 3a1.013 1.013 0 0 1 0 1.419l-3.003 2.999a1.003 1.003 0 0 1-1.712-.71c0-.28.12-.53.3-.71l1.292-1.29H5.001C4.45 4.999 4 4.549 4 4c0-.55.45-1 1-1h7.587zM5.553 10.106a1 1 0 0 1 1.341.447L10 16.763l3.106-6.21a1 1 0 0 1 1.789.894l-4 8a1 1 0 0 1-1.79 0l-4-8a1 1 0 0 1 .448-1.341"/>
</svg>
